X:511
T:The Old Grey Goose
M:6/8
L:1/8
K:G
EF|"G"GBG "D"FAF|"Em"GEE EFE|"D"DFA dAG|FDD DEF|
"G"GFG "D"AGA|"Em"BAB gfg|edB "D"BAF|"Em"GEE E2:|
|:F|"G"G2 G dBG|GFG dBG|"Am"A3 ecA|AGA ecA|
"G"G3 dBG|GBd g2 f|"Em"edB "D"BAF|"Em"GEE E2:|
|:d|"Em"efe edB|"D"def "Em"g2 e|"D"fdd add|faf fed|
"Em"efe edB|"D"def "Em"gfg|edB "D"BAF|"Em"GEE E2:|
|:c|"G"BGG "D"AFF|"Em"GEE E2 c|"G"BGB dAG|"D"FDD D2 c|
"G"BGG "D"AFF|"Em"GEE gfg|edB "D"BAF|"Em"GEE E2:|
|:f|"G"gbg "D"faf|"Em"gee e2 f|"G"gbg "D"fag|fdd def|
"G"g3 "D"f3|"Em"edB gfg|edB "D"BAF|"Em"GEE E2:|
|:f|"G"gdB "D"BAB|"Em"GEE E2 f|gdB "D"dAG|FAF DEF|
"G"G3 "D"A3|"Em"BAB g3|"G"edB "D"BAF|"Em"GEE E2:|
